X: 118
T:Four Green Fields
M:3/4
C:Tommy Makem
R:waltz
L:1/8
Z:added by Alf warnock alf0@rogers.com - www.alfwarnock.info/alfs
K:C
| "C"c6 | "G"B4 A2 | "C"G6 - | G4 GA | "F"A6 | F6 | "C"EG6- | G5 |
"C"c6 | "G7"B4 A2 | "C"G6 - | G4 G2 | "D"A4 A2 | AB3 c2 | "G7"B6 - | B2 A2 G2 |
"C"e6 | "G7"d6 | "Am"c6 - | c6 | "C"e4 c2 | "F"f4 e2 | "G7"ed6- | d3G2 |
"C"e6 | "G"d6 | "Am"c6 - | c4 G2 | "D7"A4 A2 | A2 B2 c2 | "G7"d6 - | d2 A2 G2 |
"Em"g6 | "G7"f6 | "Am"e6 - | e4 e2 | "C"e4 c2 | "F"f4 e2 | "G7"ed6- | d3G2 |
"F"A6 | c6 | "C"G6 - | G4 f2 | e3d c2| "G"d4 B2| "C"c6-|c6|]

